X:1
T:Life is All Chequered
M:6/8
L:1/8
Q:80
C:arr. Kent Hiestand
S:Jig
K:HP
d | \
{ag}af{e}f{g}fef | \
{ag}af{e}f{gfg}f2d | \
{ag}af{e}f{g}fef |
{g}dB{G}B{gBG}B2d | \
{ag}af{e}f{g}fef | \
{ag}af{e}f{g}fef |
{Gdc}d2e{g}fef | \
{g}dB{G}B{gBG}B2 :: \
A |
{g}dcd{g}ede | \
{g}fdB{g}dBG | \
{g}dcd{g}ede |
{g}fdB{gBG}B2d/2e/2 | \
{g}fed{g}edc | \
{g}dcB{g}dBG |
{g}efgfef | \
{g}dB{G}B{gBG}B2 :|
